X: 56
T:Old Mother Flanagan
M:C|
L:1/8
S:https://tunearch.org/wiki/Old_Mother_Flanagan
K:A
a2 aa f-eaf|eefe cBAF |EFAA A2+slide+c2|+slide+[e3e3][ee][e2e2](ga)-|
a2ab c'bc'b|agaf ecBA|EFAB cGBG|A3A A2||
EF|[A2A2][AA]c BAFA|+slide+[A2A2][A2c2] BAFF|EFAA A2+slide+c2|+slide+[e3e3][ea][e2a2]E-F|
[AA]AcA BAF[GA]-|[A2A2]c2 BAFF| EFAA ABc2|+slide+[e3e3][ea][e2a2] f2-|
f2af d2+slide+[d2f2]|ccec   cAAF|EFAA cAB2|
A2 +slide+d2-d2+slide+fd |c2[e2e2] cABF |EFAA cA B2|[A3A3][AA][A2A2]||

